X: 1
T: The Swallowtail
M: 6/8
L: 1/8
K: Edor
F|"Em"GEE BEE|GEE BAG|"D"FDD ADD|dcd AGF|
"Em (C)"GEE BEE|GEG B2c|"D"dcd AGF|"Em"GEE E2:|
|:A|"Em"Bcd e2f|e2f edB|"(G)" Bcd e2f|edB "D"d3|
"Em (C)"Bcd e2f|e2f edB|"D" dcd AGF|"Em"GEE E:|| 
